!!!SOCIAL_FUNCTION:	songs of games played in a ceremonial manner
!!!PDT:	1932
!!!OTL: No_14_Dancing_Song_from_the_East_God_(b).krn
!!!REG: Wisconsin
!!!LANG: Non-Tone
!!!LING_GROUP: Algonquin
**kern
*staff1
=1-
*clefF4
*k[b-e-]
*M2/4
8r
8B-\
8B-\L
8B-\J
=2
2B-\
=3||
*M3/4
8B-\L
8G\J
8F\L
8F\J
4F\
=4
8D/L
8C/J
8C/L
8C/J
8C/
8r
=5||
*M2/4
8A\L
8G\J
8F\L
8F\J
=6
2F\
=7
8G\L
8F\J
8D\L
8D\J
=8
2D\
=9
8D\L
8D\J
8C/L
8C/J
=10
2C/
=11
8r
8C/
8C/L
8F/J
=12
2F\
=13
8F\L
8D\J
8C/L
8C/J
=14
2C/
=15
8D/L
8C/J
8BB-/L
8BB-/J
=16
2BB-/
=17
8BB-/L
8BB-/J
8BB-/L
8BB-/J
=18
2BB-/
==
*-
